public/arrow.svg

<svg width="20" height="20" viewBox="0 0 20 20" fill="none" xmlns="http://www.w3.org/2000/svg">
<path fill-rule="evenodd" clip-rule="evenodd" d="M12.041 0.864859C12.2028 0.809354 12.3778 0.805772 12.5417 0.854613C12.7056 0.903453 12.8501 1.00228 12.9551 1.13727L18.6987 8.52188C18.8107 8.66592 18.8715 8.8432 18.8715 9.02568C18.8715 9.20816 18.8107 9.38544 18.6987 9.52948L12.9551 16.9141C12.8501 17.0489 12.7056 17.1476 12.5418 17.1964C12.3779 17.2451 12.203 17.2415 12.0413 17.1861C11.8797 17.1306 11.7394 17.026 11.64 16.8869C11.5407 16.7478 11.4872 16.5812 11.4872 16.4103V13.1364C7.07364 13.2283 4.95343 14.0661 3.88841 14.9769C2.8759 15.8425 2.69046 16.8608 2.49764 17.9274L2.44759 18.2023C2.41077 18.399 2.30334 18.5754 2.14552 18.6984C1.98771 18.8215 1.79037 18.8826 1.59065 18.8703C1.39093 18.858 1.20258 18.7731 1.06105 18.6317C0.919522 18.4902 0.83456 18.3019 0.822152 18.1022C0.681024 15.8474 0.892716 12.5801 2.48533 9.84701C4.03118 7.1943 6.81436 5.1545 11.4872 4.94117V1.64106C11.4871 1.47011 11.5405 1.30341 11.6398 1.16425C11.7391 1.02509 11.8794 0.920419 12.041 0.864859Z" fill="black"/>
</svg>

<svg width="20" height="20" fill="none" xmlns="http://www.w3.org/2000/svg"><path fill-rule="evenodd" clip-rule="evenodd" d="M12.041.865a.82.82 0 0 1 .914.272L18.7 8.522a.82.82 0 0 1 0 1.007l-5.744 7.385a.821.821 0 0 1-1.468-.504v-3.274c-4.413.092-6.534.93-7.599 1.84-1.012.866-1.198 1.885-1.39 2.951l-.05.275a.82.82 0 0 1-1.626-.1c-.141-2.255.07-5.522 1.663-8.255 1.546-2.653 4.33-4.692 9.002-4.906v-3.3a.82.82 0 0 1 .554-.776z" fill="#000"/></svg>
